resources/haticons/SVG/outgoing_mail.svg

<!-- Generated by IcoMoon.io -->
<svg version="1.1" xmlns="http://www.w3.org/2000/svg" width="24" height="24" viewBox="0 0 24 24">
<title>outgoing_mail</title>
<path d="M18.516 11.016h0.469v-4.125q0-0.797-0.539-1.336t-1.336-0.539h-13.219q-0.797 0-1.336 0.539t-0.539 1.336v10.219q0 0.797 0.539 1.336t1.336 0.539h9.703q-0.281-0.563-0.445-1.195t-0.164-1.289q0-1.5 0.75-2.766t1.992-1.992 2.789-0.727zM10.406 12.984l-6.422-3.797v-2.203h0.234l6.188 3.703 6.328-3.703h0.281v2.156zM18.984 12.984l-1.406 1.406 1.594 1.594h-4.172v2.016h4.172l-1.594 1.594 1.406 1.406 4.031-3.984z"></path>
</svg>

<svg xmlns="http://www.w3.org/2000/svg" width="24" height="24"><path d="M18.516 11.016h.469V6.891q0-.797-.539-1.336t-1.336-.539H3.891q-.797 0-1.336.539t-.539 1.336V17.11q0 .797.539 1.336t1.336.539h9.703q-.281-.563-.445-1.195t-.164-1.289q0-1.5.75-2.766t1.992-1.992 2.789-.727zm-8.11 1.968L3.984 9.187V6.984h.234l6.188 3.703 6.328-3.703h.281V9.14zm8.578 0l-1.406 1.406 1.594 1.594H15V18h4.172l-1.594 1.594L18.984 21l4.031-3.984z"/></svg>
